X: 32004
T: Peeler And The Goat, The
R: jig
M: 6/8
K: Edorian
E/F/|"Em"G2 E F2 D|E2 F G2 A|"G"B2 B BAG|"D"F2 D DEF|
"Em"G2 E F2 D|E2 F G2 A|"G"B2d cBA|"D"B2E "Em"E2 EBc||
"Em"d2 B cBA|B2 e e2 B/c/|"G"d2 B A2 G|"D"F2 D DEF|
"Em"G2 E FED|E2 F G2 A|"G"B2 d cBA|"D"BGE "Em"E2||

